src/icons/social-linkedin.svg

<svg xmlns="http://www.w3.org/2000/svg" width="512" height="512" viewBox="0 0 512 512">
    <path d="M390.4 89.5H123.3C108.8 89.5 96 100 96 114.4v267.7c0 14.5 12.8 27.4 27.3 27.4h267c14.7 0 25.7-13 25.7-27.4V114.4c.1-14.4-11-24.9-25.6-24.9zM195.2 356.2h-45.8V213.7h45.8v142.5zM173.9 192h-.3c-14.7 0-24.2-10.9-24.2-24.6 0-13.9 9.8-24.6 24.8-24.6s24.2 10.6 24.5 24.6c-.1 13.7-9.6 24.6-24.8 24.6zm188.8 164.2h-45.8v-77.9c0-18.7-6.7-31.4-23.3-31.4-12.7 0-20.2 8.6-23.5 16.9-1.3 3-1.6 7.1-1.6 11.3v81.2h-45.8V213.7h45.8v19.8c6.7-9.5 17.1-23.2 41.3-23.2 30.1 0 52.8 19.8 52.8 62.6v83.3h.1z"/>
</svg>

<?xml version="1.0" encoding="UTF-8"?>
<svg width="512px" height="512px" viewBox="0 0 512 512" version="1.1" xmlns="http://www.w3.org/2000/svg" xmlns:xlink="http://www.w3.org/1999/xlink">
    <!-- Generator: Sketch 62 (91390) - https://sketch.com -->
    <title>social-linkedin</title>
    <desc>Created with Sketch.</desc>
    <g id="social-linkedin" stroke="none" stroke-width="1" fill="none" fill-rule="evenodd">
        <path d="M390.4,89.5 L123.3,89.5 C108.8,89.5 96,100 96,114.4 L96,382.1 C96,396.6 108.8,409.5 123.3,409.5 L390.3,409.5 C405,409.5 416.00067,396.5 416.00067,382.1 L416.00067,114.4 C416.1,100 405,89.5 390.4,89.5 Z M195.2,356.2 L149.4,356.2 L149.4,213.7 L195.2,213.7 L195.2,356.2 Z M173.9,192 L173.6,192 C158.9,192 149.4,181.1 149.4,167.4 C149.4,153.5 159.2,142.8 174.2,142.8 C189.2,142.8 198.4,153.4 198.7,167.4 C198.6,181.1 189.1,192 173.9,192 Z M362.7,356.2 L316.9,356.2 L316.9,278.3 C316.9,259.6 310.2,246.9 293.6,246.9 C280.9,246.9 273.4,255.5 270.1,263.8 C268.8,266.8 268.5,270.9 268.5,275.1 L268.5,356.3 L222.7,356.3 L222.7,213.7 L268.5,213.7 L268.5,233.5 C275.2,224 285.6,210.3 309.8,210.3 C339.9,210.3 362.6,230.1 362.6,272.9 L362.6,356.2 L362.7,356.2 Z" id="Shape" fill="#000000" fill-rule="nonzero"></path>
    </g>
</svg>
